Origami/64x64/apps/words.svg

<svg width="64" height="64" version="1" xmlns="http://www.w3.org/2000/svg">
 <path d="m54 57v-50c0-1.662-1.338-3-3-3h-38c-1.662 0-3 1.338-3 3v50c0 1.662 1.338 3 3 3h38c1.662 0 3-1.338 3-3z" style="fill:#4e9e45"/>
 <path d="m13 4c-1.662 0-3 1.338-3 3v1c0-1.662 1.338-3 3-3h38c1.662 0 3 1.338 3 3v-1c0-1.662-1.338-3-3-3h-38z" style="fill:#ffffff;opacity:.1"/>
 <g transform="scale(2)" style="fill:#4c4c4c">
  <path d="m9 8h14v1h-14z"/>
  <path d="m9 11h14v1h-14z"/>
  <path d="m9 14h14v1h-14z"/>
  <path d="m9 17h14v1h-14z"/>
  <path d="m9 20h14v1h-14z"/>
  <path d="m9 23h14v1h-14z"/>
 </g>
 <path d="m10 57v1c0 1.662 1.338 3 3 3h38c1.662 0 3-1.338 3-3v-1c0 1.662-1.338 3-3 3h-38c-1.662 0-3-1.338-3-3z" style="opacity:.2"/>
</svg>

<svg xmlns="http://www.w3.org/2000/svg" width="64" height="64" version="1">
 <path style="fill:#4e9e45" d="M 54,57 54,7 C 54,5.338 52.662,4 51,4 L 13,4 c -1.662,0 -3,1.338 -3,3 l 0,50 c 0,1.662 1.338,3 3,3 l 38,0 c 1.662,0 3,-1.338 3,-3 z"/>
 <path style="opacity:0.1;fill:#ffffff" d="M 13 4 C 11.338 4 10 5.338 10 7 L 10 8 C 10 6.338 11.338 5 13 5 L 51 5 C 52.662 5 54 6.338 54 8 L 54 7 C 54 5.338 52.662 4 51 4 L 13 4 z"/>
 <g style="fill:#4c4c4c" transform="scale(2,2)">
  <path d="M 9,8 23,8 23,9 9,9 Z"/>
  <path d="m 9,11 14,0 0,1 -14,0 z"/>
  <path d="m 9,14 14,0 0,1 -14,0 z"/>
  <path d="m 9,17 14,0 0,1 -14,0 z"/>
  <path d="m 9,20 14,0 0,1 -14,0 z"/>
  <path d="m 9,23 14,0 0,1 -14,0 z"/>
 </g>
 <path style="opacity:0.2" d="m 10,57 0,1 c 0,1.662 1.338,3 3,3 l 38,0 c 1.662,0 3,-1.338 3,-3 l 0,-1 c 0,1.662 -1.338,3 -3,3 l -38,0 c -1.662,0 -3,-1.338 -3,-3 z"/>
</svg>
